X: 4
T: The Ladies Pantalettes
R: reel
M: 4/4
L: 1/8
K: Gmaj
|:(3Bcd cA G3c|AF F2 dF F2|(3Bcd cA G2ge|fdcA BG G2:|
|fgaf g2fg|a3g fdde|fgaf gaag|fdcA BGG2|
fgaf g2fg|a3g fdde|f3g a3g|fdcA d2cA|]


Tune 2050	Setting 2050

